static/img/kroki/452e26aaded5e463e1d6092b4ae3da3b.svg

<?xml version="1.0" encoding="us-ascii" standalone="no"?><svg xmlns="http://www.w3.org/2000/svg" xmlns:xlink="http://www.w3.org/1999/xlink" contentStyleType="text/css" height="573px" preserveAspectRatio="none" style="width:780px;height:573px;" version="1.1" viewBox="0 0 780 573" width="780px" zoomAndPan="magnify"><defs/><g><!--class azure_machine_learning_environment_version_base--><g id="elem_azure_machine_learning_environment_version_base"><rect codeLine="23" fill="#3D176E" height="39.7891" id="azure_machine_learning_environment_version_base" rx="2.5" ry="2.5" style="stroke:#000D19;stroke-width:0.5;" width="482" x="291" y="367.37"/><ellipse cx="306" cy="387.2645" fill="#ADD1B2" rx="11" ry="11" style="stroke:#181818;stroke-width:1.0;"/><path d="M308.9688,392.9052 Q308.3906,393.202 307.75,393.3427 Q307.1094,393.4989 306.4063,393.4989 Q303.9063,393.4989 302.5781,391.8583 Q301.2656,390.202 301.2656,387.077 Q301.2656,383.952 302.5781,382.2958 Q303.9063,380.6395 306.4063,380.6395 Q307.1094,380.6395 307.75,380.7958 Q308.4063,380.952 308.9688,381.2489 L308.9688,383.9677 Q308.3438,383.3895 307.75,383.1239 Q307.1563,382.8427 306.5313,382.8427 Q305.1875,382.8427 304.5,383.9208 Q303.8125,384.9833 303.8125,387.077 Q303.8125,389.1708 304.5,390.2489 Q305.1875,391.3114 306.5313,391.3114 Q307.1563,391.3114 307.75,391.0458 Q308.3438,390.7645 308.9688,390.1864 L308.9688,392.9052 Z " fill="#000000"/><text fill="#D9B8FF" font-family="Helvetica" font-size="17" lengthAdjust="spacing" textLength="440" x="325" y="393.1498">azure_machine_learning_environment_version_base</text></g><!--class azure_machine_learning_workspace_environment_version--><g id="elem_azure_machine_learning_workspace_environment_version"><rect codeLine="26" fill="#3D176E" height="39.7891" id="azure_machine_learning_workspace_environment_version" rx="2.5" ry="2.5" style="stroke:#000D19;stroke-width:0.5;" width="532" x="7" y="528.16"/><ellipse cx="22" cy="548.0545" fill="#ADD1B2" rx="11" ry="11" style="stroke:#181818;stroke-width:1.0;"/><path d="M24.9688,553.6952 Q24.3906,553.992 23.75,554.1327 Q23.1094,554.2889 22.4063,554.2889 Q19.9063,554.2889 18.5781,552.6483 Q17.2656,550.992 17.2656,547.867 Q17.2656,544.742 18.5781,543.0858 Q19.9063,541.4295 22.4063,541.4295 Q23.1094,541.4295 23.75,541.5858 Q24.4063,541.742 24.9688,542.0389 L24.9688,544.7577 Q24.3438,544.1795 23.75,543.9139 Q23.1563,543.6327 22.5313,543.6327 Q21.1875,543.6327 20.5,544.7108 Q19.8125,545.7733 19.8125,547.867 Q19.8125,549.9608 20.5,551.0389 Q21.1875,552.1014 22.5313,552.1014 Q23.1563,552.1014 23.75,551.8358 Q24.3438,551.5545 24.9688,550.9764 L24.9688,553.6952 Z " fill="#000000"/><text fill="#D9B8FF" font-family="Helvetica" font-size="17" lengthAdjust="spacing" textLength="490" x="41" y="553.9398">azure_machine_learning_workspace_environment_version</text></g><!--class azure_proxy_resource--><g id="elem_azure_proxy_resource"><rect codeLine="29" fill="#3D176E" height="39.7891" id="azure_proxy_resource" rx="2.5" ry="2.5" style="stroke:#000D19;stroke-width:0.5;" width="224" x="524" y="167.79"/><ellipse cx="539" cy="187.6845" fill="#ADD1B2" rx="11" ry="11" style="stroke:#181818;stroke-width:1.0;"/><path d="M541.9688,193.3252 Q541.3906,193.622 540.75,193.7627 Q540.1094,193.9189 539.4063,193.9189 Q536.9063,193.9189 535.5781,192.2783 Q534.2656,190.622 534.2656,187.497 Q534.2656,184.372 535.5781,182.7158 Q536.9063,181.0595 539.4063,181.0595 Q540.1094,181.0595 540.75,181.2158 Q541.4063,181.372 541.9688,181.6689 L541.9688,184.3877 Q541.3438,183.8095 540.75,183.5439 Q540.1563,183.2627 539.5313,183.2627 Q538.1875,183.2627 537.5,184.3408 Q536.8125,185.4033 536.8125,187.497 Q536.8125,189.5908 537.5,190.6689 Q538.1875,191.7314 539.5313,191.7314 Q540.1563,191.7314 540.75,191.4658 Q541.3438,191.1845 541.9688,190.6064 L541.9688,193.3252 Z " fill="#000000"/><text fill="#D9B8FF" font-family="Helvetica" font-size="17" lengthAdjust="spacing" textLength="182" x="558" y="193.5698">azure_proxy_resource</text></g><!--class microsoft_resource--><g id="elem_microsoft_resource"><rect codeLine="32" fill="#3D176E" height="39.7891" id="microsoft_resource" rx="2.5" ry="2.5" style="stroke:#000D19;stroke-width:0.5;" width="200" x="138" y="267.58"/><ellipse cx="153" cy="287.4745" fill="#ADD1B2" rx="11" ry="11" style="stroke:#181818;stroke-width:1.0;"/><path d="M155.9688,293.1152 Q155.3906,293.412 154.75,293.5527 Q154.1094,293.7089 153.4063,293.7089 Q150.9063,293.7089 149.5781,292.0683 Q148.2656,290.412 148.2656,287.287 Q148.2656,284.162 149.5781,282.5058 Q150.9063,280.8495 153.4063,280.8495 Q154.1094,280.8495 154.75,281.0058 Q155.4063,281.162 155.9688,281.4589 L155.9688,284.1777 Q155.3438,283.5995 154.75,283.3339 Q154.1563,283.0527 153.5313,283.0527 Q152.1875,283.0527 151.5,284.1308 Q150.8125,285.1933 150.8125,287.287 Q150.8125,289.3808 151.5,290.4589 Q152.1875,291.5214 153.5313,291.5214 Q154.1563,291.5214 154.75,291.2558 Q155.3438,290.9745 155.9688,290.3964 L155.9688,293.1152 Z " fill="#000000"/><text fill="#D9B8FF" font-family="Helvetica" font-size="17" lengthAdjust="spacing" textLength="158" x="172" y="293.3598">microsoft_resource</text></g><!--class phantom_resource--><g id="elem_phantom_resource"><rect codeLine="35" fill="#3D176E" height="39.7891" id="phantom_resource" rx="2.5" ry="2.5" style="stroke:#000D19;stroke-width:0.5;" width="198" x="291" y="167.79"/><ellipse cx="306" cy="187.6845" fill="#ADD1B2" rx="11" ry="11" style="stroke:#181818;stroke-width:1.0;"/><path d="M308.9688,193.3252 Q308.3906,193.622 307.75,193.7627 Q307.1094,193.9189 306.4063,193.9189 Q303.9063,193.9189 302.5781,192.2783 Q301.2656,190.622 301.2656,187.497 Q301.2656,184.372 302.5781,182.7158 Q303.9063,181.0595 306.4063,181.0595 Q307.1094,181.0595 307.75,181.2158 Q308.4063,181.372 308.9688,181.6689 L308.9688,184.3877 Q308.3438,183.8095 307.75,183.5439 Q307.1563,183.2627 306.5313,183.2627 Q305.1875,183.2627 304.5,184.3408 Q303.8125,185.4033 303.8125,187.497 Q303.8125,189.5908 304.5,190.6689 Q305.1875,191.7314 306.5313,191.7314 Q307.1563,191.7314 307.75,191.4658 Q308.3438,191.1845 308.9688,190.6064 L308.9688,193.3252 Z " fill="#000000"/><text fill="#D9B8FF" font-family="Helvetica" font-size="17" lengthAdjust="spacing" textLength="156" x="325" y="193.5698">phantom_resource</text></g><!--class resource--><g id="elem_resource"><rect codeLine="38" fill="#3D176E" height="39.7891" id="resource" rx="2.5" ry="2.5" style="stroke:#000D19;stroke-width:0.5;" width="113" x="216.5" y="7"/><ellipse cx="231.5" cy="26.8945" fill="#ADD1B2" rx="11" ry="11" style="stroke:#181818;stroke-width:1.0;"/><path d="M234.4688,32.5352 Q233.8906,32.832 233.25,32.9727 Q232.6094,33.1289 231.9063,33.1289 Q229.4063,33.1289 228.0781,31.4883 Q226.7656,29.832 226.7656,26.707 Q226.7656,23.582 228.0781,21.9258 Q229.4063,20.2695 231.9063,20.2695 Q232.6094,20.2695 233.25,20.4258 Q233.9063,20.582 234.4688,20.8789 L234.4688,23.5977 Q233.8438,23.0195 233.25,22.7539 Q232.6563,22.4727 232.0313,22.4727 Q230.6875,22.4727 230,23.5508 Q229.3125,24.6133 229.3125,26.707 Q229.3125,28.8008 230,29.8789 Q230.6875,30.9414 232.0313,30.9414 Q232.6563,30.9414 233.25,30.6758 Q233.8438,30.3945 234.4688,29.8164 L234.4688,32.5352 Z " fill="#000000"/><text fill="#D9B8FF" font-family="Helvetica" font-size="17" lengthAdjust="spacing" textLength="71" x="250.5" y="32.7798">resource</text></g><!--reverse link azure_proxy_resource to azure_machine_learning_environment_version_base--><g id="link_azure_proxy_resource_azure_machine_learning_environment_version_base"><path codeLine="41" d="M617.4562,223.9183 C597.5762,261.6883 562.12,329.05 542.2,366.88 " fill="none" id="azure_proxy_resource-backto-azure_machine_learning_environment_version_base" style="stroke:#FFAF37;stroke-width:2.0;"/><polygon fill="none" points="625.84,207.99,612.1468,221.1238,622.7657,226.7129,625.84,207.99" style="stroke:#FFAF37;stroke-width:2.0;"/></g><!--reverse link phantom_resource to azure_machine_learning_environment_version_base--><g id="link_phantom_resource_azure_machine_learning_environment_version_base"><path codeLine="42" d="M414.3762,222.6058 C441.5262,260.3758 490.88,329.05 518.07,366.88 " fill="none" id="phantom_resource-backto-azure_machine_learning_environment_version_base" style="stroke:#FFAF37;stroke-width:2.0;"/><polygon fill="none" points="403.87,207.99,409.5042,226.1078,419.2481,219.1037,403.87,207.99" style="stroke:#FFAF37;stroke-width:2.0;"/></g><!--reverse link azure_machine_learning_environment_version_base to azure_machine_learning_workspace_environment_version--><g id="link_azure_machine_learning_environment_version_base_azure_machine_learning_workspace_environment_version"><path codeLine="43" d="M485.1543,416.988 C435.2743,447.568 354.02,497.38 304.28,527.88 " fill="none" id="azure_machine_learning_environment_version_base-backto-azure_machine_learning_workspace_environment_version" style="stroke:#FFAF37;stroke-width:2.0;"/><polygon fill="none" points="500.5,407.58,482.0183,411.8728,488.2903,422.1032,500.5,407.58" style="stroke:#FFAF37;stroke-width:2.0;"/></g><!--reverse link microsoft_resource to azure_machine_learning_workspace_environment_version--><g id="link_microsoft_resource_azure_machine_learning_workspace_environment_version"><path codeLine="44" d="M242.9857,325.3272 C249.4457,373.0272 263.86,479.56 270.38,527.66 " fill="none" id="microsoft_resource-backto-azure_machine_learning_workspace_environment_version" style="stroke:#FFAF37;stroke-width:2.0;"/><polygon fill="none" points="240.57,307.49,237.04,326.1324,248.9314,324.5219,240.57,307.49" style="stroke:#FFAF37;stroke-width:2.0;"/></g><!--reverse link resource to microsoft_resource--><g id="link_resource_microsoft_resource"><path codeLine="45" d="M268.0148,64.7472 C261.5548,112.4572 247.14,218.98 240.62,267.08 " fill="none" id="resource-backto-microsoft_resource" style="stroke:#FFAF37;stroke-width:2.0;"/><polygon fill="none" points="270.43,46.91,262.0691,63.9422,273.9606,65.5523,270.43,46.91" style="stroke:#FFAF37;stroke-width:2.0;"/></g><!--reverse link resource to phantom_resource--><g id="link_resource_phantom_resource"><path codeLine="46" d="M297.7881,61.5406 C320.2781,92.0606 353.32,136.9 375.84,167.47 " fill="none" id="resource-backto-phantom_resource" style="stroke:#FFAF37;stroke-width:2.0;"/><polygon fill="none" points="287.11,47.05,292.9579,65.1,302.6183,57.9813,287.11,47.05" style="stroke:#FFAF37;stroke-width:2.0;"/></g><!--SRC=[fP9HJy8m58NVzokQy4m24WKINv34w0inullIhRUisTgxt7OWgF_T8Mf6EqRGrvwlvznxSZCbW84ktPPfq0cGZMokJCc9QpOZmiqS2oJMavBBqTWNxz6uiy22Qs0FKAp1gPJxn4kcqjo0jUog8TtnD5yHLaOSx1rnOsi9Z6jGyu9REtEEL58vQ0mZfib4If_qJNiZCHpVG80X2Q1lP30OYE7KHyv6TUxzIopL3jYmMTe27GHZ1X5VLEUKUw8nPB3eZtvonYSkX38hTjruUpxCH0Rew7sPSO6RFIrvOPinrW41kcq9ys0hc4w47BV2ZwVWADrNn_Yk8eWrJpDb82w0awdJOp1hHMXqVIJnkZvbXIPEk0Ns5aKVtLytI7bzNocqcOJ_IyBNRKnWiQBqo5-hbD2YTArgcN7ZKBTgns-jERVl_Nx_qksZ8FHlDfUMtfdIsNVKKk8_t3oFqDmd_CAYJm00]--></g></svg>

<svg xmlns="http://www.w3.org/2000/svg" width="780" height="573" viewBox="0 0 780 573"><rect width="482" height="39.789" x="291" y="367.37" fill="#3D176E" rx="2.5" ry="2.5" style="stroke:#000d19;stroke-width:.5"/><circle cx="306" cy="387.264" r="11" fill="#ADD1B2" style="stroke:#181818;stroke-width:1"/><path d="M308.969 392.905q-.578.297-1.219.438-.64.156-1.344.156-2.5 0-3.828-1.64-1.312-1.657-1.312-4.782t1.312-4.781q1.328-1.656 3.828-1.656.703 0 1.344.156.656.156 1.219.453v2.719q-.625-.579-1.219-.844-.594-.281-1.219-.281-1.344 0-2.031 1.078-.687 1.062-.687 3.156t.687 3.172q.688 1.062 2.031 1.062.625 0 1.219-.265.594-.281 1.219-.86z"/><text x="325" y="393.15" fill="#D9B8FF" font-family="Helvetica" font-size="17" textLength="440">azure_machine_learning_environment_version_base</text><rect width="532" height="39.789" x="7" y="528.16" fill="#3D176E" rx="2.5" ry="2.5" style="stroke:#000d19;stroke-width:.5"/><circle cx="22" cy="548.054" r="11" fill="#ADD1B2" style="stroke:#181818;stroke-width:1"/><path d="M24.969 553.695q-.578.297-1.219.438-.64.156-1.344.156-2.5 0-3.828-1.64-1.312-1.657-1.312-4.782t1.312-4.781q1.328-1.657 3.828-1.657.703 0 1.344.157.656.156 1.219.453v2.719q-.625-.579-1.219-.844-.594-.281-1.219-.281-1.343 0-2.031 1.078-.687 1.062-.687 3.156t.687 3.172q.688 1.062 2.031 1.062.625 0 1.219-.265.594-.282 1.219-.86z"/><text x="41" y="553.94" fill="#D9B8FF" font-family="Helvetica" font-size="17" textLength="490">azure_machine_learning_workspace_environment_version</text><rect width="224" height="39.789" x="524" y="167.79" fill="#3D176E" rx="2.5" ry="2.5" style="stroke:#000d19;stroke-width:.5"/><circle cx="539" cy="187.685" r="11" fill="#ADD1B2" style="stroke:#181818;stroke-width:1"/><path d="M541.969 193.325q-.578.297-1.219.438-.64.156-1.344.156-2.5 0-3.828-1.64-1.312-1.657-1.312-4.782t1.312-4.781q1.328-1.656 3.828-1.656.703 0 1.344.156.656.156 1.219.453v2.719q-.625-.578-1.219-.844-.594-.281-1.219-.281-1.343 0-2.031 1.078-.687 1.062-.687 3.156t.687 3.172q.688 1.062 2.031 1.062.625 0 1.219-.265.594-.281 1.219-.86z"/><text x="558" y="193.57" fill="#D9B8FF" font-family="Helvetica" font-size="17" textLength="182">azure_proxy_resource</text><rect width="200" height="39.789" x="138" y="267.58" fill="#3D176E" rx="2.5" ry="2.5" style="stroke:#000d19;stroke-width:.5"/><circle cx="153" cy="287.474" r="11" fill="#ADD1B2" style="stroke:#181818;stroke-width:1"/><path d="M155.969 293.115q-.578.297-1.219.438-.64.156-1.344.156-2.5 0-3.828-1.64-1.312-1.657-1.312-4.782t1.312-4.781q1.328-1.656 3.828-1.656.703 0 1.344.156.656.156 1.219.453v2.719q-.625-.579-1.219-.844-.594-.281-1.219-.281-1.344 0-2.031 1.078-.687 1.062-.687 3.156t.687 3.172q.688 1.062 2.031 1.062.625 0 1.219-.265.594-.281 1.219-.86z"/><text x="172" y="293.36" fill="#D9B8FF" font-family="Helvetica" font-size="17" textLength="158">microsoft_resource</text><rect width="198" height="39.789" x="291" y="167.79" fill="#3D176E" rx="2.5" ry="2.5" style="stroke:#000d19;stroke-width:.5"/><circle cx="306" cy="187.685" r="11" fill="#ADD1B2" style="stroke:#181818;stroke-width:1"/><path d="M308.969 193.325q-.578.297-1.219.438-.64.156-1.344.156-2.5 0-3.828-1.64-1.312-1.657-1.312-4.782t1.312-4.781q1.328-1.656 3.828-1.656.703 0 1.344.156.656.156 1.219.453v2.719q-.625-.578-1.219-.844-.594-.281-1.219-.281-1.344 0-2.031 1.078-.687 1.062-.687 3.156t.687 3.172q.688 1.062 2.031 1.062.625 0 1.219-.265.594-.281 1.219-.86z"/><text x="325" y="193.57" fill="#D9B8FF" font-family="Helvetica" font-size="17" textLength="156">phantom_resource</text><rect width="113" height="39.789" x="216.5" y="7" fill="#3D176E" rx="2.5" ry="2.5" style="stroke:#000d19;stroke-width:.5"/><circle cx="231.5" cy="26.895" r="11" fill="#ADD1B2" style="stroke:#181818;stroke-width:1"/><path d="M234.469 32.535q-.578.297-1.219.438-.64.156-1.344.156-2.5 0-3.828-1.64-1.312-1.657-1.312-4.782t1.312-4.781q1.328-1.656 3.828-1.656.703 0 1.344.156.656.156 1.219.453v2.719q-.625-.578-1.219-.844-.594-.281-1.219-.281-1.344 0-2.031 1.078-.687 1.062-.687 3.156t.687 3.172q.688 1.062 2.031 1.062.625 0 1.219-.265.594-.281 1.219-.86z"/><text x="250.5" y="32.78" fill="#D9B8FF" font-family="Helvetica" font-size="17" textLength="71">resource</text><g fill="none"><path d="M617.456 223.918c-19.88 37.77-55.336 105.132-75.256 142.962" style="stroke:#ffaf37;stroke-width:2"/><path d="m625.84 207.99-13.693 13.134 10.619 5.589z" style="stroke:#ffaf37;stroke-width:2"/></g><g fill="none"><path d="M414.376 222.606c27.15 37.77 76.504 106.444 103.694 144.274" style="stroke:#ffaf37;stroke-width:2"/><path d="m403.87 207.99 5.634 18.118 9.744-7.004z" style="stroke:#ffaf37;stroke-width:2"/></g><path fill="none" d="M485.154 416.988c-49.88 30.58-131.134 80.392-180.874 110.892m196.22-120.3-18.482 4.293 6.272 10.23zm-257.514-82.253c6.46 47.7 20.874 154.233 27.394 202.333m-29.81-220.17-3.53 18.642 11.891-1.61zm27.445-242.743c-6.46 47.71-20.875 154.233-27.395 202.333m29.81-220.17-8.36 17.032 11.89 1.61z" style="stroke:#ffaf37;stroke-width:2"/><g fill="none"><path d="M297.788 61.54c22.49 30.52 55.532 75.36 78.052 105.93" style="stroke:#ffaf37;stroke-width:2"/><path d="m287.11 47.05 5.848 18.05 9.66-7.119z" style="stroke:#ffaf37;stroke-width:2"/></g></svg>
